front/public/static/landing/logos/gray/payfit.svg

<svg fill="none" height="263" viewBox="0 0 600 263" width="600" xmlns="http://www.w3.org/2000/svg" xmlns:xlink="http://www.w3.org/1999/xlink"><mask id="a" height="261" maskUnits="userSpaceOnUse" width="520" x="40" y="1"><path d="m560.001 1.25256h-520.001v260.49544h520.001z" fill="#fff"/></mask><mask id="b" height="261" maskUnits="userSpaceOnUse" width="520" x="40" y="1"><path d="m560.001 1.25256h-520.001v260.49544h520.001z" fill="#fff"/></mask><g mask="url(#a)"><g mask="url(#b)"><path d="m389.024 116.941h-5.258c-.555 0-1.05.372-1.237.867-.244.744-.432 1.239-.492 1.549l-9.46 28.437c-.061.248-.371.929-.865 2.045-.248.495-.99.495-1.237 0-.309-.682-.556-1.363-.803-2.045l-9.583-29.305-.185-.681c-.186-.558-.681-.93-1.237-.93h-5.193c-.928 0-1.546.868-1.236 1.735l.185.496 14.59 40.828.062.124c.123.31.123.62 0 .93l-.248.867c-.927 2.54-3.338 4.212-6.058 4.212h-5.44c-.742 0-1.299.62-1.299 1.302v4.213c0 .743.557 1.301 1.299 1.301h5.44c5.316 0 10.139-3.098 12.241-7.869l.247-.619c.062-.186 3.958-10.904 16.693-46.281.124-.557-.311-1.176-.926-1.176zm-69.367 36.429c1.113.372 2.411.62 3.895.62 4.39 0 7.79-1.921 10.325-4.214 2.04-2.044 3.029-4.522 3.029-7.558v-3.283c0-.372-.309-.682-.681-.682l-.989.124-4.08.496-8.099 1.239c-4.388.682-6.985 2.478-7.851 5.142-.247.619-.371 1.301-.371 2.044-.061 2.85 1.979 5.266 4.822 6.072zm24.482 2.85v2.54c0 .743-.618 1.301-1.298 1.301h-4.205c-.741 0-1.298-.558-1.298-1.301l-.061-4.213c0-.309-.371-.434-.557-.248l-.742.744c-3.4 3.345-8.036 5.018-13.971 5.018-4.266 0-7.79-1.115-10.51-3.408-2.721-2.23-4.08-5.328-4.08-9.417 0-2.106.37-3.964 1.174-5.513s1.793-2.727 3.091-3.594c1.299-.867 2.597-1.549 3.71-1.983 1.174-.433 2.411-.743 3.709-.929 6.306-.867 9.706-1.363 10.324-1.486.557-.063 2.597-.31 6.183-.806l.741-.124c.31-.062.557-.309.557-.619v-1.797c0-2.664-.681-4.771-2.164-6.258-1.484-1.486-4.081-2.23-7.913-2.23-2.04 0-3.772.248-5.193.682-1.484.495-2.535 1.176-3.277 2.106-.618.744-1.113 1.549-1.422 2.416-.123.31-.186.558-.247.868-.124.62-.681 1.053-1.298 1.053h-4.822c-.742 0-1.36-.62-1.299-1.425v-.248c.062-.495.124-.867.186-1.239.247-1.116.741-2.292 1.484-3.531.741-1.239 1.73-2.293 2.967-3.222 1.237-.93 2.906-1.673 5.069-2.293 2.226-.619 4.761-.929 7.667-.929 11.745 0 17.495 4.585 17.495 13.94zm96.443-38.35v40.704c0 .744.619 1.301 1.298 1.301h5.254c.682 0 1.297-.619 1.297-1.301v-40.704c0-.743-.615-1.301-1.297-1.301h-5.254c-.679 0-1.298.558-1.298 1.301zm0-12.948v5.142c0 .743.619 1.301 1.298 1.301h5.254c.742 0 1.297-.558 1.297-1.301v-5.142c0-.744-.555-1.302-1.297-1.302h-5.254c-.679 0-1.298.558-1.298 1.302zm32.457 18.462h11.126c.742 0 1.301-.619 1.301-1.301v-4.213c0-.743-.619-1.301-1.301-1.301h-11.126c-.372 0-.683-.31-.683-.681v-10.966c0-.744-.615-1.302-1.297-1.302h-5.254c-.743 0-1.297.558-1.297 1.302v10.966c0 .371-.312.681-.683.681h-4.822c-.739 0-1.298.558-1.298 1.301v4.213c0 .743.619 1.301 1.298 1.301h4.822c.371 0 .683.31.683.681v23.171c.247 7.063 6.12 12.701 13.29 12.701h5.872c.743 0 1.301-.619 1.301-1.301v-4.213c0-.743-.618-1.301-1.301-1.301h-5.872c-3.03 0-5.442-2.416-5.442-5.39v-23.667c.064-.371.311-.681.683-.681zm-171.496-2.23c0-9.541-7.727-17.286-17.371-17.534h-25.101c-.742 0-1.298.558-1.298 1.302v53.652c0 .744.619 1.301 1.298 1.301h5.256c.742 0 1.298-.619 1.298-1.301v-19.268c0-.371.247-.681.618-.681h17.805c9.705-.186 17.433-7.931 17.495-17.471zm-6.985 0c0 5.886-4.822 10.656-10.82 10.656h-17.433c-.372 0-.618-.31-.618-.682v-20.011c0-.371.246-.681.618-.681h17.433c5.998 0 10.82 4.832 10.82 10.718zm111.652 17.347h19.781c.743 0 1.298-.62 1.298-1.301v-4.213c0-.744-.619-1.301-1.298-1.301h-19.781c-.371 0-.683-.31-.683-.619v-19.888c0-.372.312-.682.683-.682h24.296c.739 0 1.298-.619 1.298-1.301v-4.213c0-.743-.619-1.301-1.298-1.301h-31.53c-.742 0-1.297.558-1.297 1.301v53.653c0 .744.555 1.301 1.297 1.301h5.254c.742 0 1.297-.619 1.297-1.301v-19.454c.064-.372.312-.681.683-.681zm-234.431-63.4416c31.591 0 57.185 25.2776 57.185 56.4406s-25.594 56.441-57.185 56.441c-31.592 0-57.248-25.278-57.248-56.441s25.595-56.4406 57.248-56.4406zm-10.696 30.1726h-8.47c-.617 0-1.174.433-1.298 1.052v.248 45.228c0 5.451 4.514 9.912 10.016 9.912 5.563 0 10.015-4.461 10.015-9.912 0-.125 0-.125 0-.187v-11.214c0-.31.185-.557.494-.618l.186-.063h13.354c9.334-.372 16.753-7.992 16.753-17.223 0-9.294-7.419-16.852-16.878-17.223h-.123c-1.051 0-9.087 0-24.049 0zm11.499 5.079h12.055c6.801 0 12.365 5.453 12.365 12.144 0 6.567-5.255 11.895-11.87 12.143h-13.106c-.371 0-.68-.31-.618-.681v-8.241c0-.372.247-.681.618-.681h12.611c1.423 0 2.536-1.115 2.597-2.54 0-1.425-1.174-2.54-2.597-2.54h-17.124c-.742 0-1.298.619-1.298 1.301v30.234c.123 2.788-2.103 5.142-4.884 5.142-2.659 0-4.885-2.107-4.885-4.832 0-.125 0-.187 0-.249v-40.58c0-.371.31-.62.619-.62z" fill="#364153"/></g></g></svg>

<svg width="600" height="263" viewBox="0 0 600 263" fill="none" xmlns="http://www.w3.org/2000/svg">
<mask id="mask0_1904_3653" style="mask-type:luminance" maskUnits="userSpaceOnUse" x="40" y="1" width="520" height="261">
<path d="M560.001 1.25256H40V261.748H560.001V1.25256Z" fill="white"/>
</mask>
<g mask="url(#mask0_1904_3653)">
<mask id="mask1_1904_3653" style="mask-type:luminance" maskUnits="userSpaceOnUse" x="40" y="1" width="520" height="261">
<path d="M560.001 1.25256H40V261.748H560.001V1.25256Z" fill="white"/>
</mask>
<g mask="url(#mask1_1904_3653)">
<path d="M389.024 116.941H383.766C383.211 116.941 382.716 117.313 382.529 117.808C382.285 118.552 382.097 119.047 382.037 119.357L372.577 147.794C372.516 148.042 372.206 148.723 371.712 149.839C371.464 150.334 370.722 150.334 370.475 149.839C370.166 149.157 369.919 148.476 369.672 147.794L360.089 118.489L359.904 117.808C359.718 117.25 359.223 116.878 358.667 116.878H353.474C352.546 116.878 351.928 117.746 352.238 118.613L352.423 119.109L367.013 159.937L367.075 160.061C367.198 160.371 367.198 160.681 367.075 160.991L366.827 161.858C365.9 164.398 363.489 166.07 360.769 166.07H355.329C354.587 166.07 354.03 166.69 354.03 167.372V171.585C354.03 172.328 354.587 172.886 355.329 172.886H360.769C366.085 172.886 370.908 169.788 373.01 165.017L373.257 164.398C373.319 164.212 377.215 153.494 389.95 118.117C390.074 117.56 389.639 116.941 389.024 116.941ZM319.657 153.37C320.77 153.742 322.068 153.99 323.552 153.99C327.942 153.99 331.342 152.069 333.877 149.776C335.917 147.732 336.906 145.254 336.906 142.218V138.935C336.906 138.563 336.597 138.253 336.225 138.253L335.236 138.377L331.156 138.873L323.057 140.112C318.669 140.794 316.072 142.59 315.206 145.254C314.959 145.873 314.835 146.555 314.835 147.298C314.774 150.148 316.814 152.564 319.657 153.37ZM344.139 156.22V158.76C344.139 159.503 343.521 160.061 342.841 160.061H338.636C337.895 160.061 337.338 159.503 337.338 158.76L337.277 154.547C337.277 154.238 336.906 154.113 336.72 154.299L335.978 155.043C332.578 158.388 327.942 160.061 322.007 160.061C317.741 160.061 314.217 158.946 311.497 156.653C308.776 154.423 307.417 151.325 307.417 147.236C307.417 145.13 307.787 143.272 308.591 141.723C309.395 140.174 310.384 138.996 311.682 138.129C312.981 137.262 314.279 136.58 315.392 136.146C316.566 135.713 317.803 135.403 319.101 135.217C325.407 134.35 328.807 133.854 329.425 133.731C329.982 133.668 332.022 133.421 335.608 132.925L336.349 132.801C336.659 132.739 336.906 132.492 336.906 132.182V130.385C336.906 127.721 336.225 125.614 334.742 124.127C333.258 122.641 330.661 121.897 326.829 121.897C324.789 121.897 323.057 122.145 321.636 122.579C320.152 123.074 319.101 123.755 318.359 124.685C317.741 125.429 317.246 126.234 316.937 127.101C316.814 127.411 316.751 127.659 316.69 127.969C316.566 128.589 316.009 129.022 315.392 129.022H310.57C309.828 129.022 309.21 128.402 309.271 127.597V127.349C309.333 126.854 309.395 126.482 309.457 126.11C309.704 124.994 310.198 123.818 310.941 122.579C311.682 121.34 312.671 120.286 313.908 119.357C315.145 118.427 316.814 117.684 318.977 117.064C321.203 116.445 323.738 116.135 326.644 116.135C338.389 116.135 344.139 120.72 344.139 130.075V156.22ZM440.582 117.87V158.574C440.582 159.318 441.201 159.875 441.88 159.875H447.134C447.816 159.875 448.431 159.256 448.431 158.574V117.87C448.431 117.127 447.816 116.569 447.134 116.569H441.88C441.201 116.569 440.582 117.127 440.582 117.87ZM440.582 104.922V110.064C440.582 110.807 441.201 111.365 441.88 111.365H447.134C447.876 111.365 448.431 110.807 448.431 110.064V104.922C448.431 104.178 447.876 103.62 447.134 103.62H441.88C441.201 103.62 440.582 104.178 440.582 104.922ZM473.039 123.384H484.165C484.907 123.384 485.466 122.765 485.466 122.083V117.87C485.466 117.127 484.847 116.569 484.165 116.569H473.039C472.667 116.569 472.356 116.259 472.356 115.888V104.922C472.356 104.178 471.741 103.62 471.059 103.62H465.805C465.062 103.62 464.508 104.178 464.508 104.922V115.888C464.508 116.259 464.196 116.569 463.825 116.569H459.003C458.264 116.569 457.705 117.127 457.705 117.87V122.083C457.705 122.826 458.324 123.384 459.003 123.384H463.825C464.196 123.384 464.508 123.694 464.508 124.065V147.236C464.755 154.299 470.628 159.937 477.798 159.937H483.67C484.413 159.937 484.971 159.318 484.971 158.636V154.423C484.971 153.68 484.353 153.122 483.67 153.122H477.798C474.768 153.122 472.356 150.706 472.356 147.732V124.065C472.42 123.694 472.667 123.384 473.039 123.384ZM301.543 121.154C301.543 111.613 293.816 103.868 284.172 103.62H259.071C258.329 103.62 257.773 104.178 257.773 104.922V158.574C257.773 159.318 258.392 159.875 259.071 159.875H264.327C265.069 159.875 265.625 159.256 265.625 158.574V139.306C265.625 138.935 265.872 138.625 266.243 138.625H284.048C293.753 138.439 301.481 130.694 301.543 121.154ZM294.558 121.154C294.558 127.04 289.736 131.81 283.738 131.81H266.305C265.933 131.81 265.687 131.5 265.687 131.128V111.117C265.687 110.746 265.933 110.436 266.305 110.436H283.738C289.736 110.436 294.558 115.268 294.558 121.154ZM406.21 138.501H425.991C426.734 138.501 427.289 137.881 427.289 137.2V132.987C427.289 132.243 426.67 131.686 425.991 131.686H406.21C405.839 131.686 405.527 131.376 405.527 131.067V111.179C405.527 110.807 405.839 110.497 406.21 110.497H430.506C431.245 110.497 431.804 109.878 431.804 109.196V104.983C431.804 104.24 431.185 103.682 430.506 103.682H398.976C398.234 103.682 397.679 104.24 397.679 104.983V158.636C397.679 159.38 398.234 159.937 398.976 159.937H404.23C404.972 159.937 405.527 159.318 405.527 158.636V139.182C405.591 138.81 405.839 138.501 406.21 138.501ZM171.779 75.0594C203.37 75.0594 228.964 100.337 228.964 131.5C228.964 162.663 203.37 187.941 171.779 187.941C140.187 187.941 114.531 162.663 114.531 131.5C114.531 100.337 140.126 75.0594 171.779 75.0594ZM161.083 105.232H152.613C151.996 105.232 151.439 105.665 151.315 106.284V106.532V151.76C151.315 157.211 155.829 161.672 161.331 161.672C166.894 161.672 171.346 157.211 171.346 151.76C171.346 151.635 171.346 151.635 171.346 151.573V140.359C171.346 140.049 171.531 139.802 171.84 139.741L172.026 139.678H185.38C194.714 139.306 202.133 131.686 202.133 122.455C202.133 113.161 194.714 105.603 185.255 105.232H185.132C184.081 105.232 176.045 105.232 161.083 105.232ZM172.582 110.311H184.637C191.438 110.311 197.002 115.764 197.002 122.455C197.002 129.022 191.747 134.35 185.132 134.598H172.026C171.655 134.598 171.346 134.288 171.408 133.917V125.676C171.408 125.304 171.655 124.995 172.026 124.995H184.637C186.06 124.995 187.173 123.88 187.234 122.455C187.234 121.03 186.06 119.915 184.637 119.915H167.513C166.771 119.915 166.215 120.534 166.215 121.216V151.45C166.338 154.238 164.112 156.592 161.331 156.592C158.672 156.592 156.446 154.485 156.446 151.76C156.446 151.635 156.446 151.573 156.446 151.511V110.931C156.446 110.56 156.756 110.311 157.065 110.311H172.582Z" fill="#364153"/>
</g>
</g>
</svg>
